X: 30
T: A Lover of Mild Behavior
M: 3/4
L: 1/4
B: "O'Neill's 30"
N: "Cheerfully" "collected by F. O'Neill"
Z: "Transcribed by Norbert Paap, norbertp@bdu.uva.nl"
K:A
c/2-d/2 | e2-f | d2-e | c2-A | (~d c A) |\
(~G F G) | A2 A | A3 | zzG |
A2-B | c2-d | e2-a | g2-a |\
f2-e | (~d c d) | e3 | zzG |
A2-B | c2-d | e2-a | g2-a |\
f2-e | (~d c d) | (e3 | e2) c/2-d/2 |
e2-f | d2-e | c2-A | (d c A) |\
(~G F G) | A2 A | (A3 | A2) |:|


